assets/2023/icons/anyType.svg

<!-- Copyright 2000-2023 JetBrains s.r.o. and contributors. Use of this source code is governed by the Apache 2.0 license. -->
<svg width="16" height="16" viewBox="0 0 16 16" fill="none" xmlns="http://www.w3.org/2000/svg">
<path d="M3.5 5.91421C3.5 5.649 3.60536 5.39464 3.79289 5.20711L7.20711 1.79289C7.39464 1.60536 7.649 1.5 7.91421 1.5H11.5C12.0523 1.5 12.5 1.94772 12.5 2.5C12.5 8.09791 12.5 8.62014 12.5 13.4992C12.5 14.0514 12.0523 14.5 11.5 14.5H4.5C3.94772 14.5 3.5 14.0523 3.5 13.5V5.91421Z" fill="#EBECF0"/>
<path fill-rule="evenodd" clip-rule="evenodd" d="M7.91421 1C7.51639 1 7.13486 1.15803 6.85355 1.43934L3.43934 4.85355C3.15804 5.13486 3 5.51639 3 5.91421V13.5C3 14.3284 3.67157 15 4.5 15H11C12.1046 15 13 14.1046 13 13V2.5C13 1.67157 12.3284 1 11.5 1H7.91421ZM12 2.5C12 2.22386 11.7761 2 11.5 2H8V4.5C8 5.32843 7.32843 6 6.5 6H4V13.5C4 13.7761 4.22386 14 4.5 14H11C11.5523 14 12 13.5523 12 13V2.5ZM7 2.70711L4.70711 5H6.5C6.77614 5 7 4.77614 7 4.5V2.70711Z" fill="#6C707E"/>
</svg>

<svg xmlns="http://www.w3.org/2000/svg" width="16" height="16" fill="none" viewBox="0 0 16 16"><path fill="#EBECF0" d="M3.5 5.914a1 1 0 0 1 .293-.707l3.414-3.414a1 1 0 0 1 .707-.293H11.5a1 1 0 0 1 1 1v11a1 1 0 0 1-1 1h-7a1 1 0 0 1-1-1z"/><path fill="#6C707E" fill-rule="evenodd" d="M7.914 1a1.5 1.5 0 0 0-1.06.44L3.439 4.853A1.5 1.5 0 0 0 3 5.914V13.5A1.5 1.5 0 0 0 4.5 15H11a2 2 0 0 0 2-2V2.5A1.5 1.5 0 0 0 11.5 1zM12 2.5a.5.5 0 0 0-.5-.5H8v2.5A1.5 1.5 0 0 1 6.5 6H4v7.5a.5.5 0 0 0 .5.5H11a1 1 0 0 0 1-1zm-5 .207L4.707 5H6.5a.5.5 0 0 0 .5-.5z" clip-rule="evenodd"/></svg>
